Newaita-dark/apps/64/mintbackup.svg

<svg height="64pt" viewBox="0 0 64 64" width="64pt" xmlns="http://www.w3.org/2000/svg" xmlns:xlink="http://www.w3.org/1999/xlink"><linearGradient id="a"><stop offset="0" stop-opacity=".313725"/><stop offset=".222222" stop-opacity=".27451"/><stop offset="1" stop-opacity="0"/></linearGradient><radialGradient id="b" cx="450.90894" cy="189.57936" gradientTransform="matrix(.00000035 -.156265 -.281277 -.0000002 89.046304 127.190664)" gradientUnits="userSpaceOnUse" r="21.166656" xlink:href="#a"/><radialGradient id="c" cx="450.90894" cy="189.57936" gradientTransform="matrix(-.00000035 .156265 .281277 .0000002 -25.540241 -15.054962)" gradientUnits="userSpaceOnUse" r="21.166656" xlink:href="#a"/><radialGradient id="d" cx="450.90894" cy="189.57936" gradientTransform="matrix(-.00000035 -.156265 .281277 -.0000002 -25.540241 127.190664)" gradientUnits="userSpaceOnUse" r="21.166656" xlink:href="#a"/><radialGradient id="e" cx="450.90894" cy="189.57936" gradientTransform="matrix(.00000035 .156265 -.281277 .0000002 89.0463 -15.054964)" gradientUnits="userSpaceOnUse" r="21.166656" xlink:href="#a"/><linearGradient id="f" gradientTransform="matrix(.0267201 0 0 .125012 24.930772 26.877567)" gradientUnits="userSpaceOnUse" x1="255.32306" x2="255.32304" y1="233.5" y2="254.66666"><stop offset="0" stop-opacity=".27451"/><stop offset="1" stop-opacity="0"/></linearGradient><linearGradient id="g" gradientUnits="userSpaceOnUse" x1="254" x2="254" y1="-168.66667" y2="233.5"><stop offset="0" stop-color="#aed581"/><stop offset="1" stop-color="#9ccc65"/></linearGradient><linearGradient id="h" gradientUnits="userSpaceOnUse" x1="31.753056" x2="31.753056" y1="56.06789909502" y2="5.79222444893"><stop offset="0" stop-color="#424242"/><stop offset="1" stop-color="#616161"/></linearGradient><path d="m36.382812 56.066406h5.292969v-2.644531h-5.292969zm0 0" fill="url(#b)"/><path d="m27.121094 56.066406h-5.289063v2.648438h5.289063zm0 0" fill="url(#c)"/><path d="m27.121094 56.066406h-5.289063v-2.644531h5.289063zm0 0" fill="url(#d)"/><path d="m36.382812 56.066406h5.292969v2.648438h-5.292969zm0 0" fill="url(#e)"/><path d="m27.121094 55.40625h9.261718v3.308594h-9.261718zm0 0" fill="url(#f)"/><path d="m254.006994-168.660675c111.051895 0 201.074548 90.022653 201.074548 201.074548s-90.022653 201.074548-201.074548 201.074548c-111.051896 0-201.105796-90.022653-201.105796-201.074548s90.0539-201.074548 201.105796-201.074548zm0 0" fill="url(#g)" stroke="#333" stroke-linecap="round" stroke-width="3" transform="matrix(.125012 0 0 .125012 0 26.877566)"/><path d="m31.753906 56.066406c-13.925781 0-25.140625-11.210937-25.140625-25.136718 0-.082032.003907-.164063.003907-.246094.128906 13.8125 11.292968 24.890625 25.136718 24.890625s25.003906-11.078125 25.136719-24.890625v.246094c0 13.925781-11.210937 25.136718-25.136719 25.136718zm0 0" fill-opacity=".196078"/><path d="m31.753906 5.792969c-13.925781 0-25.140625 11.210937-25.140625 25.136719 0 .082031.003907.164062.003907.246093.128906-13.8125 11.292968-24.890625 25.136718-24.890625s25.003906 11.078125 25.136719 24.890625c0-.082031 0-.164062 0-.246093 0-13.925782-11.210937-25.136719-25.136719-25.136719zm0 0" fill="#fff" fill-opacity=".392157"/><path d="m31.753906 5.605469c-14.027344 0-25.328125 11.296875-25.328125 25.324219 0 14.027343 11.300781 25.324218 25.328125 25.324218s25.324219-11.296875 25.324219-25.324218c0-14.027344-11.296875-25.324219-25.324219-25.324219zm0 .375c13.824219 0 24.949219 11.125 24.949219 24.949219 0 13.824218-11.125 24.949218-24.949219 24.949218-13.828125 0-24.953125-11.125-24.953125-24.949218 0-13.824219 11.125-24.949219 24.953125-24.949219zm0 0" fill="#212121"/><path d="m32.390625 9.761719c-.25.003906-.503906.078125-.734375.238281l-6.613281 4.632812c-.753907.523438-.753907 1.640626 0 2.164063l6.613281 4.632813c.21875.152343.476562.234374.746094.238281.734375.007812 1.335937-.585938 1.335937-1.324219v-2.578125c6.703125.660156 11.90625 6.28125 11.90625 13.164063 0 4.867187-2.597656 9.101562-6.492187 11.398437l.824218.574219c.902344.636718 1.433594 1.59375 1.585938 2.609375 4.84375-3.035157 8.050781-8.421875 8.050781-14.582031 0-9.082032-6.96875-16.480469-15.875-17.148438v-2.695312c0-.769532-.621093-1.3125-1.296875-1.324219-.019531-.003907-.035156-.003907-.050781 0zm-10.445313 6.585937c-4.84375 3.035156-8.050781 8.421875-8.050781 14.582032 0 9.082031 6.96875 16.480468 15.875 17.148437v2.699219c0 1.066406 1.203125 1.695312 2.082031 1.082031l6.613282-4.632813c.753906-.523437.753906-1.636718 0-2.164062l-6.613282-4.632812c-.21875-.152344-.480468-.234376-.746093-.238282-.734375-.007812-1.335938.585938-1.335938 1.324219v2.578125c-6.703125-.65625-11.90625-6.28125-11.90625-13.164062 0-4.863282 2.597657-9.101563 6.488281-11.398438l-.820312-.574219c-.902344-.632812-1.433594-1.59375-1.585938-2.609375zm0 0" fill="url(#h)"/><path d="m32.390625 9.761719c-.25.003906-.503906.078125-.734375.238281l-6.613281 4.632812c-.480469.332032-.652344.90625-.523438 1.414063.074219-.292969.25-.5625.523438-.753906l6.613281-4.628907c.230469-.160156.484375-.238281.734375-.242187h.050781c.675782.015625 1.296875.554687 1.296875 1.324219v-.660156c0-.769532-.621093-1.3125-1.296875-1.324219-.019531-.003907-.035156-.003907-.050781 0zm1.347656 4.019531v.660156c8.792969.664063 15.699219 7.882813 15.871094 16.808594.003906-.105469.003906-.210938.003906-.320312 0-9.082032-6.96875-16.480469-15.875-17.148438zm-11.792969 2.566406c-4.84375 3.035156-8.050781 8.421875-8.050781 14.582032v.324218c.117188-6.019531 3.292969-11.261718 8.050781-14.242187.152344 1.015625.683594 1.972656 1.585938 2.605469l.320312.226562c.164063-.109375.332032-.210938.5-.3125l-.820312-.574219c-.902344-.632812-1.433594-1.59375-1.585938-2.609375zm23.691407 15.054688c-.160157 4.664062-2.71875 8.703125-6.484375 10.925781l.503906.351563c3.488281-2.277344 5.828125-6.160157 5.980469-10.617188.003906.046875.003906.097656.003906.144531.003906-.113281.003906-.222656.003906-.335937 0-.15625 0-.3125-.007812-.46875zm-27.765625 0c-.007813.15625-.007813.3125-.007813.46875 0 .117187 0 .230468.003907.34375 0-.050782 0-.101563.003906-.148438.230468 6.664063 5.347656 12.046875 11.898437 12.691406v-.664062c-6.550781-.640625-11.667969-6.023438-11.898437-12.691406zm13.234375 8.789062c-.734375-.007812-1.335938.585938-1.335938 1.324219v.660156c0-.734375.601563-1.328125 1.335938-1.320312.265625.003906.527343.085937.746093.238281l6.613282 4.632812c.273437.191407.449218.457032.523437.75.128907-.507812-.042969-1.082031-.523437-1.414062l-6.613282-4.632812c-.21875-.152344-.480468-.234376-.746093-.238282zm0 0" fill="#fff" fill-opacity=".392157"/><path d="m24.652344 16.3125c-.324219.566406-.195313 1.332031.390625 1.742188l6.613281 4.632812c.21875.152344.476562.234375.746094.238281.734375.007813 1.335937-.585937 1.335937-1.320312v-1.324219c0 .734375-.601562 1.328125-1.335937 1.320312-.269532 0-.527344-.085937-.746094-.238281l-6.613281-4.628906c-.167969-.117187-.296875-.261719-.390625-.421875zm9.085937 1.386719v1.324219c6.488281.636718 11.570313 5.925781 11.890625 12.503906.011719-.21875.015625-.441406.015625-.664063 0-6.882812-5.203125-12.503906-11.90625-13.164062zm-10.359375 2.402343c-3.34375 2.394532-5.515625 6.316407-5.515625 10.761719 0 .222657.003907.445313.015625.664063.222656-4.585938 2.761719-8.542969 6.472656-10.738282l-.820312-.574218c-.050781-.039063-.101562-.074219-.152344-.113282zm26.222656 11.421876c-.21875 5.886718-3.367187 10.996093-8.039062 13.925781-.144531-.957031-.621094-1.867188-1.433594-2.496094-.316406.222656-.640625.4375-.976562.632813l.824218.578124c.902344.632813 1.433594 1.589844 1.585938 2.605469 4.84375-3.035156 8.050781-8.417969 8.050781-14.582031 0-.222656-.003906-.445312-.011719-.664062zm-35.695312.007812c-.007812.21875-.011719.4375-.011719.65625 0 9.085938 6.96875 16.480469 15.875 17.152344v-1.324219c-8.6875-.65625-15.535156-7.707031-15.863281-16.484375zm24.949219 15.210938c-.09375.160156-.222657.304687-.390625.421874l-6.613282 4.628907c-.878906.613281-2.082031-.011719-2.082031-1.082031v1.324218c0 1.070313 1.203125 1.695313 2.082031 1.082032l6.613282-4.628907c.585937-.410156.714844-1.179687.390625-1.746093zm0 0" fill-opacity=".235294"/><path d="m979.276575 295.129301c-7.558334.118099-15.234766 2.361979-22.202605 7.204036l-199.941539 140.065366c-22.793099 15.825261-22.793099 49.601564 0 65.426824l199.941539 140.065367c6.613542 4.605859 14.408073 7.085937 22.556902 7.204036 22.202604.236198 40.389844-17.714844 40.389844-40.035547v-77.945314c202.657815 19.958724 359.96563 189.903128 359.96563 397.993495 0 147.151304-78.535809 275.170576-196.280472 344.612765l24.918881 17.360547c27.28086 19.25013 43.342318 48.184375 47.948177 78.890105 146.442711-91.762892 243.401957-254.621357 243.401957-440.863417 0-274.580082-210.688545-498.259512-479.954173-518.454434v-81.488282c0-23.265495-18.777735-39.681251-39.208855-40.035547-.590494-.118099-1.06289-.118099-1.535286 0zm-315.796619 199.114846c-146.44271 91.762892-243.401956 254.621357-243.401956 440.863417 0 274.580081 210.688544 498.259511 479.954173 518.454433v81.606382c0 32.241016 36.374479 51.254948 62.946745 32.713412l199.941539-140.065367c22.7931-15.82526 22.7931-49.483464 0-65.426824l-199.941539-140.065366c-6.613541-4.605859-14.526172-7.085937-22.556901-7.204036-22.202604-.236198-40.389844 17.714844-40.389844 40.035547v77.945313c-202.657815-19.840625-359.96563-189.903127-359.96563-397.993494 0-147.033205 78.535809-275.170577 196.162373-344.612765l-24.800782-17.360547c-27.28086-19.132031-43.342318-48.184376-47.948178-78.890105zm0 0" fill="none" stroke="#212121" stroke-linecap="round" stroke-width="11.338583" transform="scale(.0330761)"/></svg>

<?xml version="1.0" encoding="UTF-8"?>
<svg xmlns="http://www.w3.org/2000/svg" xmlns:xlink="http://www.w3.org/1999/xlink" width="64pt" height="64pt" viewBox="0 0 64 64" version="1.1">
<defs>
<radialGradient id="radial0" gradientUnits="userSpaceOnUse" cx="450.90894" cy="189.57936" fx="450.90894" fy="189.57936" r="21.166656" gradientTransform="matrix(0.000000348341,-0.156265,-0.281277,-0.000000203077,89.046304,127.190664)">
<stop offset="0" style="stop-color:rgb(0%,0%,0%);stop-opacity:0.313725;"/>
<stop offset="0.222222" style="stop-color:rgb(0%,0%,0%);stop-opacity:0.27451;"/>
<stop offset="1" style="stop-color:rgb(0%,0%,0%);stop-opacity:0;"/>
</radialGradient>
<radialGradient id="radial1" gradientUnits="userSpaceOnUse" cx="450.90894" cy="189.57936" fx="450.90894" fy="189.57936" r="21.166656" gradientTransform="matrix(-0.000000348341,0.156265,0.281277,0.000000203077,-25.540241,-15.054962)">
<stop offset="0" style="stop-color:rgb(0%,0%,0%);stop-opacity:0.313725;"/>
<stop offset="0.222222" style="stop-color:rgb(0%,0%,0%);stop-opacity:0.27451;"/>
<stop offset="1" style="stop-color:rgb(0%,0%,0%);stop-opacity:0;"/>
</radialGradient>
<radialGradient id="radial2" gradientUnits="userSpaceOnUse" cx="450.90894" cy="189.57936" fx="450.90894" fy="189.57936" r="21.166656" gradientTransform="matrix(-0.000000348341,-0.156265,0.281277,-0.000000203077,-25.540241,127.190664)">
<stop offset="0" style="stop-color:rgb(0%,0%,0%);stop-opacity:0.313725;"/>
<stop offset="0.222222" style="stop-color:rgb(0%,0%,0%);stop-opacity:0.27451;"/>
<stop offset="1" style="stop-color:rgb(0%,0%,0%);stop-opacity:0;"/>
</radialGradient>
<radialGradient id="radial3" gradientUnits="userSpaceOnUse" cx="450.90894" cy="189.57936" fx="450.90894" fy="189.57936" r="21.166656" gradientTransform="matrix(0.000000348341,0.156265,-0.281277,0.000000203077,89.0463,-15.054964)">
<stop offset="0" style="stop-color:rgb(0%,0%,0%);stop-opacity:0.313725;"/>
<stop offset="0.222222" style="stop-color:rgb(0%,0%,0%);stop-opacity:0.27451;"/>
<stop offset="1" style="stop-color:rgb(0%,0%,0%);stop-opacity:0;"/>
</radialGradient>
<linearGradient id="linear0" gradientUnits="userSpaceOnUse" x1="255.32306" y1="233.5" x2="255.32304" y2="254.66666" gradientTransform="matrix(0.0267201,0,0,0.125012,24.930772,26.877567)">
<stop offset="0" style="stop-color:rgb(0%,0%,0%);stop-opacity:0.27451;"/>
<stop offset="1" style="stop-color:rgb(0%,0%,0%);stop-opacity:0;"/>
</linearGradient>
<linearGradient id="linear1" gradientUnits="userSpaceOnUse" x1="254" y1="-168.66667" x2="254" y2="233.5" >
<stop offset="0" style="stop-color:rgb(68.235294%,83.529412%,50.588235%);stop-opacity:1;"/>
<stop offset="1" style="stop-color:rgb(61.176471%,80%,39.607843%);stop-opacity:1;"/>
</linearGradient>
<linearGradient id="linear2" gradientUnits="userSpaceOnUse" x1="960" y1="1695.1182" x2="960" y2="175.11812" gradientTransform="matrix(0.0330761,0,0,0.0330761,0,0)">
<stop offset="0" style="stop-color:rgb(25.882353%,25.882353%,25.882353%);stop-opacity:1;"/>
<stop offset="1" style="stop-color:rgb(38.039216%,38.039216%,38.039216%);stop-opacity:1;"/>
</linearGradient>
</defs>
<g id="surface1">
<path style=" stroke:none;fill-rule:nonzero;fill:url(#radial0);" d="M 36.382812 56.066406 L 41.675781 56.066406 L 41.675781 53.421875 L 36.382812 53.421875 Z M 36.382812 56.066406 "/>
<path style=" stroke:none;fill-rule:nonzero;fill:url(#radial1);" d="M 27.121094 56.066406 L 21.832031 56.066406 L 21.832031 58.714844 L 27.121094 58.714844 Z M 27.121094 56.066406 "/>
<path style=" stroke:none;fill-rule:nonzero;fill:url(#radial2);" d="M 27.121094 56.066406 L 21.832031 56.066406 L 21.832031 53.421875 L 27.121094 53.421875 Z M 27.121094 56.066406 "/>
<path style=" stroke:none;fill-rule:nonzero;fill:url(#radial3);" d="M 36.382812 56.066406 L 41.675781 56.066406 L 41.675781 58.714844 L 36.382812 58.714844 Z M 36.382812 56.066406 "/>
<path style=" stroke:none;fill-rule:nonzero;fill:url(#linear0);" d="M 27.121094 55.40625 L 36.382812 55.40625 L 36.382812 58.714844 L 27.121094 58.714844 Z M 27.121094 55.40625 "/>
<path style="fill-rule:nonzero;fill:url(#linear1);stroke-width:3;stroke-linecap:round;stroke-linejoin:miter;stroke:rgb(20%,20%,20%);stroke-opacity:1;stroke-miterlimit:4;" d="M 254.006994 -168.660675 C 365.058889 -168.660675 455.081542 -78.638022 455.081542 32.413873 C 455.081542 143.465768 365.058889 233.488421 254.006994 233.488421 C 142.955098 233.488421 52.901198 143.465768 52.901198 32.413873 C 52.901198 -78.638022 142.955098 -168.660675 254.006994 -168.660675 Z M 254.006994 -168.660675 " transform="matrix(0.125012,0,0,0.125012,0,26.877566)"/>
<path style=" stroke:none;fill-rule:nonzero;fill:rgb(0%,0%,0%);fill-opacity:0.196078;" d="M 31.753906 56.066406 C 17.828125 56.066406 6.613281 44.855469 6.613281 30.929688 C 6.613281 30.847656 6.617188 30.765625 6.617188 30.683594 C 6.746094 44.496094 17.910156 55.574219 31.753906 55.574219 C 45.597656 55.574219 56.757812 44.496094 56.890625 30.683594 C 56.890625 30.765625 56.890625 30.847656 56.890625 30.929688 C 56.890625 44.855469 45.679688 56.066406 31.753906 56.066406 Z M 31.753906 56.066406 "/>
<path style=" stroke:none;fill-rule:nonzero;fill:rgb(100%,100%,100%);fill-opacity:0.392157;" d="M 31.753906 5.792969 C 17.828125 5.792969 6.613281 17.003906 6.613281 30.929688 C 6.613281 31.011719 6.617188 31.09375 6.617188 31.175781 C 6.746094 17.363281 17.910156 6.285156 31.753906 6.285156 C 45.597656 6.285156 56.757812 17.363281 56.890625 31.175781 C 56.890625 31.09375 56.890625 31.011719 56.890625 30.929688 C 56.890625 17.003906 45.679688 5.792969 31.753906 5.792969 Z M 31.753906 5.792969 "/>
<path style=" stroke:none;fill-rule:nonzero;fill:rgb(12.941176%,12.941176%,12.941176%);fill-opacity:1;" d="M 31.753906 5.605469 C 17.726562 5.605469 6.425781 16.902344 6.425781 30.929688 C 6.425781 44.957031 17.726562 56.253906 31.753906 56.253906 C 45.78125 56.253906 57.078125 44.957031 57.078125 30.929688 C 57.078125 16.902344 45.78125 5.605469 31.753906 5.605469 Z M 31.753906 5.980469 C 45.578125 5.980469 56.703125 17.105469 56.703125 30.929688 C 56.703125 44.753906 45.578125 55.878906 31.753906 55.878906 C 17.925781 55.878906 6.800781 44.753906 6.800781 30.929688 C 6.800781 17.105469 17.925781 5.980469 31.753906 5.980469 Z M 31.753906 5.980469 "/>
<path style=" stroke:none;fill-rule:nonzero;fill:url(#linear2);" d="M 32.390625 9.761719 C 32.140625 9.765625 31.886719 9.839844 31.65625 10 L 25.042969 14.632812 C 24.289062 15.15625 24.289062 16.273438 25.042969 16.796875 L 31.65625 21.429688 C 31.875 21.582031 32.132812 21.664062 32.402344 21.667969 C 33.136719 21.675781 33.738281 21.082031 33.738281 20.34375 L 33.738281 17.765625 C 40.441406 18.425781 45.644531 24.046875 45.644531 30.929688 C 45.644531 35.796875 43.046875 40.03125 39.152344 42.328125 L 39.976562 42.902344 C 40.878906 43.539062 41.410156 44.496094 41.5625 45.511719 C 46.40625 42.476562 49.613281 37.089844 49.613281 30.929688 C 49.613281 21.847656 42.644531 14.449219 33.738281 13.78125 L 33.738281 11.085938 C 33.738281 10.316406 33.117188 9.773438 32.441406 9.761719 C 32.421875 9.757812 32.40625 9.757812 32.390625 9.761719 Z M 21.945312 16.347656 C 17.101562 19.382812 13.894531 24.769531 13.894531 30.929688 C 13.894531 40.011719 20.863281 47.410156 29.769531 48.078125 L 29.769531 50.777344 C 29.769531 51.84375 30.972656 52.472656 31.851562 51.859375 L 38.464844 47.226562 C 39.21875 46.703125 39.21875 45.589844 38.464844 45.0625 L 31.851562 40.429688 C 31.632812 40.277344 31.371094 40.195312 31.105469 40.191406 C 30.371094 40.183594 29.769531 40.777344 29.769531 41.515625 L 29.769531 44.09375 C 23.066406 43.4375 17.863281 37.8125 17.863281 30.929688 C 17.863281 26.066406 20.460938 21.828125 24.351562 19.53125 L 23.53125 18.957031 C 22.628906 18.324219 22.097656 17.363281 21.945312 16.347656 Z M 21.945312 16.347656 "/>
<path style=" stroke:none;fill-rule:nonzero;fill:rgb(100%,100%,100%);fill-opacity:0.392157;" d="M 32.390625 9.761719 C 32.140625 9.765625 31.886719 9.839844 31.65625 10 L 25.042969 14.632812 C 24.5625 14.964844 24.390625 15.539062 24.519531 16.046875 C 24.59375 15.753906 24.769531 15.484375 25.042969 15.292969 L 31.65625 10.664062 C 31.886719 10.503906 32.140625 10.425781 32.390625 10.421875 C 32.40625 10.421875 32.421875 10.421875 32.441406 10.421875 C 33.117188 10.4375 33.738281 10.976562 33.738281 11.746094 L 33.738281 11.085938 C 33.738281 10.316406 33.117188 9.773438 32.441406 9.761719 C 32.421875 9.757812 32.40625 9.757812 32.390625 9.761719 Z M 33.738281 13.78125 L 33.738281 14.441406 C 42.53125 15.105469 49.4375 22.324219 49.609375 31.25 C 49.613281 31.144531 49.613281 31.039062 49.613281 30.929688 C 49.613281 21.847656 42.644531 14.449219 33.738281 13.78125 Z M 21.945312 16.347656 C 17.101562 19.382812 13.894531 24.769531 13.894531 30.929688 C 13.894531 31.039062 13.894531 31.148438 13.894531 31.253906 C 14.011719 25.234375 17.1875 19.992188 21.945312 17.011719 C 22.097656 18.027344 22.628906 18.984375 23.53125 19.617188 L 23.851562 19.84375 C 24.015625 19.734375 24.183594 19.632812 24.351562 19.53125 L 23.53125 18.957031 C 22.628906 18.324219 22.097656 17.363281 21.945312 16.347656 Z M 45.636719 31.402344 C 45.476562 36.066406 42.917969 40.105469 39.152344 42.328125 L 39.65625 42.679688 C 43.144531 40.402344 45.484375 36.519531 45.636719 32.0625 C 45.640625 32.109375 45.640625 32.160156 45.640625 32.207031 C 45.644531 32.09375 45.644531 31.984375 45.644531 31.871094 C 45.644531 31.714844 45.644531 31.558594 45.636719 31.402344 Z M 17.871094 31.402344 C 17.863281 31.558594 17.863281 31.714844 17.863281 31.871094 C 17.863281 31.988281 17.863281 32.101562 17.867188 32.214844 C 17.867188 32.164062 17.867188 32.113281 17.871094 32.066406 C 18.101562 38.730469 23.21875 44.113281 29.769531 44.757812 L 29.769531 44.09375 C 23.21875 43.453125 18.101562 38.070312 17.871094 31.402344 Z M 31.105469 40.191406 C 30.371094 40.183594 29.769531 40.777344 29.769531 41.515625 L 29.769531 42.175781 C 29.769531 41.441406 30.371094 40.847656 31.105469 40.855469 C 31.371094 40.859375 31.632812 40.941406 31.851562 41.09375 L 38.464844 45.726562 C 38.738281 45.917969 38.914062 46.183594 38.988281 46.476562 C 39.117188 45.96875 38.945312 45.394531 38.464844 45.0625 L 31.851562 40.429688 C 31.632812 40.277344 31.371094 40.195312 31.105469 40.191406 Z M 31.105469 40.191406 "/>
<path style=" stroke:none;fill-rule:nonzero;fill:rgb(0%,0%,0%);fill-opacity:0.235294;" d="M 24.652344 16.3125 C 24.328125 16.878906 24.457031 17.644531 25.042969 18.054688 L 31.65625 22.6875 C 31.875 22.839844 32.132812 22.921875 32.402344 22.925781 C 33.136719 22.933594 33.738281 22.339844 33.738281 21.605469 L 33.738281 20.28125 C 33.738281 21.015625 33.136719 21.609375 32.402344 21.601562 C 32.132812 21.601562 31.875 21.515625 31.65625 21.363281 L 25.042969 16.734375 C 24.875 16.617188 24.746094 16.472656 24.652344 16.3125 Z M 33.738281 17.699219 L 33.738281 19.023438 C 40.226562 19.660156 45.308594 24.949219 45.628906 31.527344 C 45.640625 31.308594 45.644531 31.085938 45.644531 30.863281 C 45.644531 23.980469 40.441406 18.359375 33.738281 17.699219 Z M 23.378906 20.101562 C 20.035156 22.496094 17.863281 26.417969 17.863281 30.863281 C 17.863281 31.085938 17.867188 31.308594 17.878906 31.527344 C 18.101562 26.941406 20.640625 22.984375 24.351562 20.789062 L 23.53125 20.214844 C 23.480469 20.175781 23.429688 20.140625 23.378906 20.101562 Z M 49.601562 31.523438 C 49.382812 37.410156 46.234375 42.519531 41.5625 45.449219 C 41.417969 44.492188 40.941406 43.582031 40.128906 42.953125 C 39.8125 43.175781 39.488281 43.390625 39.152344 43.585938 L 39.976562 44.164062 C 40.878906 44.796875 41.410156 45.753906 41.5625 46.769531 C 46.40625 43.734375 49.613281 38.351562 49.613281 32.1875 C 49.613281 31.964844 49.609375 31.742188 49.601562 31.523438 Z M 13.90625 31.53125 C 13.898438 31.75 13.894531 31.96875 13.894531 32.1875 C 13.894531 41.273438 20.863281 48.667969 29.769531 49.339844 L 29.769531 48.015625 C 21.082031 47.359375 14.234375 40.308594 13.90625 31.53125 Z M 38.855469 46.742188 C 38.761719 46.902344 38.632812 47.046875 38.464844 47.164062 L 31.851562 51.792969 C 30.972656 52.40625 29.769531 51.78125 29.769531 50.710938 L 29.769531 52.035156 C 29.769531 53.105469 30.972656 53.730469 31.851562 53.117188 L 38.464844 48.488281 C 39.050781 48.078125 39.179688 47.308594 38.855469 46.742188 Z M 38.855469 46.742188 "/>
<path style="fill:none;stroke-width:11.338583;stroke-linecap:round;stroke-linejoin:miter;stroke:rgb(12.941176%,12.941176%,12.941176%);stroke-opacity:1;stroke-miterlimit:4;" d="M 979.276575 295.129301 C 971.718241 295.2474 964.041809 297.49128 957.07397 302.333337 L 757.132431 442.398703 C 734.339332 458.223964 734.339332 492.000267 757.132431 507.825527 L 957.07397 647.890894 C 963.687512 652.496753 971.482043 654.976831 979.630872 655.09493 C 1001.833476 655.331128 1020.020716 637.380086 1020.020716 615.059383 L 1020.020716 537.114069 C 1222.678531 557.072793 1379.986346 727.017197 1379.986346 935.107564 C 1379.986346 1082.258868 1301.450537 1210.27814 1183.705874 1279.720329 L 1208.624755 1297.080876 C 1235.905615 1316.331006 1251.967073 1345.265251 1256.572932 1375.970981 C 1403.015643 1284.208089 1499.974889 1121.349624 1499.974889 935.107564 C 1499.974889 660.527482 1289.286344 436.848052 1020.020716 416.65313 L 1020.020716 335.164848 C 1020.020716 311.899353 1001.242981 295.483597 980.811861 295.129301 C 980.221367 295.011202 979.748971 295.011202 979.276575 295.129301 Z M 663.479956 494.244147 C 517.037246 586.007039 420.078 748.865504 420.078 935.107564 C 420.078 1209.687645 630.766544 1433.367075 900.032173 1453.561997 L 900.032173 1535.168379 C 900.032173 1567.409395 936.406652 1586.423327 962.978918 1567.881791 L 1162.920457 1427.816424 C 1185.713557 1411.991164 1185.713557 1378.33296 1162.920457 1362.3896 L 962.978918 1222.324234 C 956.365377 1217.718375 948.452746 1215.238297 940.422017 1215.120198 C 918.219413 1214.884 900.032173 1232.835042 900.032173 1255.155745 L 900.032173 1333.101058 C 697.374358 1313.260433 540.066543 1143.197931 540.066543 935.107564 C 540.066543 788.074359 618.602352 659.936987 736.228916 590.494799 L 711.428134 573.134252 C 684.147274 554.002221 668.085816 524.949876 663.479956 494.244147 Z M 663.479956 494.244147 " transform="matrix(0.0330761,0,0,0.0330761,0,0)"/>
</g>
</svg>
